src/core/resource/difficulty3.svg

<?xml version="1.0" encoding="UTF-8" standalone="no"?>
<!-- Created with Inkscape (http://www.inkscape.org/) -->

<svg
   xmlns:dc="http://purl.org/dc/elements/1.1/"
   xmlns:cc="http://creativecommons.org/ns#"
   xmlns:rdf="http://www.w3.org/1999/02/22-rdf-syntax-ns#"
   xmlns:svg="http://www.w3.org/2000/svg"
   xmlns="http://www.w3.org/2000/svg"
   xmlns:sodipodi="http://sodipodi.sourceforge.net/DTD/sodipodi-0.dtd"
   xmlns:inkscape="http://www.inkscape.org/namespaces/inkscape"
   width="32"
   height="32"
   id="svg4437"
   version="1.1"
   inkscape:version="0.92.4 (5da689c313, 2019-01-14)"
   sodipodi:docname="difficulty3.svg">
  <defs
     id="defs4439" />
  <sodipodi:namedview
     id="base"
     pagecolor="#ffffff"
     bordercolor="#666666"
     borderopacity="1.0"
     inkscape:pageopacity="0.0"
     inkscape:pageshadow="2"
     inkscape:zoom="11.2"
     inkscape:cx="-0.626079"
     inkscape:cy="8.0303502"
     inkscape:document-units="px"
     inkscape:current-layer="layer1"
     showgrid="false"
     fit-margin-top="0"
     fit-margin-left="0"
     fit-margin-right="0"
     fit-margin-bottom="0"
     inkscape:window-width="1884"
     inkscape:window-height="1051"
     inkscape:window-x="0"
     inkscape:window-y="0"
     inkscape:window-maximized="1" />
  <metadata
     id="metadata4442">
    <rdf:RDF>
      <cc:Work
         rdf:about="">
        <dc:format>image/svg+xml</dc:format>
        <dc:type
           rdf:resource="http://purl.org/dc/dcmitype/StillImage" />
        <dc:title></dc:title>
        <dc:date>2015</dc:date>
        <dc:creator>
          <cc:Agent>
            <dc:title>Timothée Giet</dc:title>
          </cc:Agent>
        </dc:creator>
        <cc:license
           rdf:resource="http://creativecommons.org/licenses/by-sa/4.0/" />
      </cc:Work>
      <cc:License
         rdf:about="http://creativecommons.org/licenses/by-sa/4.0/">
        <cc:permits
           rdf:resource="http://creativecommons.org/ns#Reproduction" />
        <cc:permits
           rdf:resource="http://creativecommons.org/ns#Distribution" />
        <cc:requires
           rdf:resource="http://creativecommons.org/ns#Notice" />
        <cc:requires
           rdf:resource="http://creativecommons.org/ns#Attribution" />
        <cc:permits
           rdf:resource="http://creativecommons.org/ns#DerivativeWorks" />
        <cc:requires
           rdf:resource="http://creativecommons.org/ns#ShareAlike" />
      </cc:License>
    </rdf:RDF>
  </metadata>
  <g
     inkscape:label="Calque 1"
     inkscape:groupmode="layer"
     id="layer1"
     transform="translate(-336.86116,-577.10535)">
    <g
       transform="matrix(1.3281595,0,0,1.3281595,-271.18278,190.22964)"
       inkscape:label="#DIFFICULTY"
       id="DIFFICULTY2-2"
       style="display:inline;fill:#000000;stroke-width:1.76066661;stroke-miterlimit:4;stroke-dasharray:none">
      <g
         transform="matrix(0.4516067,0,0,0.4516067,457.52487,289.64644)"
         id="g4178-7"
         style="display:inline;fill:#000000;stroke-width:3.89867234;stroke-miterlimit:4;stroke-dasharray:none" />
      <g
         transform="matrix(0.3950865,-0.01035701,0.01035701,0.3950865,465.22791,296.33811)"
         id="g4194-3"
         style="display:inline;fill:#000000;stroke-width:4.45487738;stroke-miterlimit:4;stroke-dasharray:none" />
    </g>
    <g
       transform="matrix(0.45737834,0,0,0.45737834,336.45677,580.69542)"
       id="g4178"
       style="display:inline;stroke-width:3.33441305;stroke-miterlimit:4;stroke-dasharray:none">
      <path
         inkscape:connector-curvature="0"
         style="fill:#ffff00;stroke:#ffb115;stroke-width:3.33441305;stroke-linecap:round;stroke-linejoin:round;stroke-miterlimit:4;stroke-dasharray:none;stroke-opacity:1"
         id="path4182"
         d="M 37.310531,41.5 24.030644,34.826121 10.735101,41.471448 13.289408,27.369086 2.5511637,17.368344 17.409702,15.326301 24.068641,2.5000004 l 6.628775,12.8404876 14.853695,2.073761 -10.761729,9.97779 z" />
    </g>
    <g
       transform="matrix(0.4001358,-0.01048937,0.01048937,0.4001358,347.3356,584.42244)"
       id="g4194"
       style="display:inline;stroke-width:3.81011772;stroke-miterlimit:4;stroke-dasharray:none">
      <path
         inkscape:connector-curvature="0"
         style="fill:#ffff00;stroke:#ffb115;stroke-width:3.81011772;stroke-linecap:round;stroke-linejoin:round;stroke-miterlimit:4;stroke-dasharray:none;stroke-opacity:1"
         id="path4198"
         d="M 33.504312,45.111761 20.224425,38.437882 6.9288828,45.083209 9.4831898,30.980847 -1.255055,20.980105 13.603483,18.938062 20.262422,6.1117606 26.891197,18.952249 41.744892,21.02601 30.983163,31.0038 Z" />
    </g>
    <path
       d="m 365.93633,604.18193 -3.82361,-1.79766 -3.72883,1.98753 0.62083,-4.02666 -3.1261,-2.76201 4.20729,-0.69101 1.79679,-3.69459 1.97942,3.59963 4.23659,0.47868 -2.98395,2.91566 z"
       id="path4466"
       style="display:inline;fill:#ffff00;stroke:#ffb115;stroke-width:1.52508831;stroke-linecap:round;stroke-linejoin:round;stroke-miterlimit:4;stroke-dasharray:none;stroke-opacity:1"
       inkscape:connector-curvature="0" />
  </g>
</svg>

<!--Created with Inkscape (http://www.inkscape.org/)--><svg xmlns:dc="http://purl.org/dc/elements/1.1/" xmlns:cc="http://creativecommons.org/ns#" xmlns:rdf="http://www.w3.org/1999/02/22-rdf-syntax-ns#" xmlns="http://www.w3.org/2000/svg" xmlns:sodipodi="http://sodipodi.sourceforge.net/DTD/sodipodi-0.dtd" xmlns:inkscape="http://www.inkscape.org/namespaces/inkscape" width="32" height="32" inkscape:version="0.92.4 (5da689c313, 2019-01-14)" sodipodi:docname="difficulty3.svg"><sodipodi:namedview pagecolor="#ffffff" bordercolor="#666666" borderopacity="1.0" inkscape:pageopacity="0.0" inkscape:pageshadow="2" inkscape:zoom="11.2" inkscape:cx="-0.626079" inkscape:cy="8.0303502" inkscape:document-units="px" inkscape:current-layer="layer1" showgrid="false" fit-margin-top="0" fit-margin-left="0" fit-margin-right="0" fit-margin-bottom="0" inkscape:window-width="1884" inkscape:window-height="1051" inkscape:window-x="0" inkscape:window-y="0" inkscape:window-maximized="1"/><metadata><rdf:RDF><cc:Work><dc:format>image/svg+xml</dc:format><dc:type rdf:resource="http://purl.org/dc/dcmitype/StillImage"/><dc:title/><dc:date>2015</dc:date><dc:creator><cc:Agent><dc:title>Timothée Giet</dc:title></cc:Agent></dc:creator><cc:license rdf:resource="http://creativecommons.org/licenses/by-sa/4.0/"/></cc:Work><cc:License rdf:about="http://creativecommons.org/licenses/by-sa/4.0/"><cc:permits rdf:resource="http://creativecommons.org/ns#Reproduction"/><cc:permits rdf:resource="http://creativecommons.org/ns#Distribution"/><cc:requires rdf:resource="http://creativecommons.org/ns#Notice"/><cc:requires rdf:resource="http://creativecommons.org/ns#Attribution"/><cc:permits rdf:resource="http://creativecommons.org/ns#DerivativeWorks"/><cc:requires rdf:resource="http://creativecommons.org/ns#ShareAlike"/></cc:License></rdf:RDF></metadata><g inkscape:label="Calque 1" inkscape:groupmode="layer"><g style="display:inline;stroke-width:3.33441305;stroke-miterlimit:4;stroke-dasharray:none"><path inkscape:connector-curvature="0" style="fill:#ff0;stroke:#ffb115;stroke-width:3.33441305;stroke-linecap:round;stroke-linejoin:round;stroke-miterlimit:4;stroke-dasharray:none;stroke-opacity:1" d="m37.31 41.5-13.28-6.674-13.295 6.645L13.29 27.37l-10.738-10 14.859-2.043L24.069 2.5l6.628 12.84 14.854 2.074-10.762 9.978z" transform="matrix(.45738 0 0 .45738 -.404 3.59)"/></g><g style="display:inline;stroke-width:3.81011772;stroke-miterlimit:4;stroke-dasharray:none"><path inkscape:connector-curvature="0" style="fill:#ff0;stroke:#ffb115;stroke-width:3.81011772;stroke-linecap:round;stroke-linejoin:round;stroke-miterlimit:4;stroke-dasharray:none;stroke-opacity:1" d="m33.504 45.112-13.28-6.674L6.93 45.083l2.554-14.102-10.738-10 14.858-2.043 6.66-12.826 6.628 12.84 14.854 2.074-10.762 9.978z" transform="matrix(.40014 -.01049 .01049 .40014 10.474 7.317)"/></g><path d="m365.936 604.182-3.823-1.798-3.73 1.988.622-4.027-3.126-2.762 4.207-.69 1.797-3.695 1.98 3.6 4.236.478-2.984 2.916z" style="display:inline;fill:#ff0;stroke:#ffb115;stroke-width:1.52508831;stroke-linecap:round;stroke-linejoin:round;stroke-miterlimit:4;stroke-dasharray:none;stroke-opacity:1" inkscape:connector-curvature="0" transform="translate(-336.861 -577.105)"/></g></svg>
